src/assets/keyboard-left.svg

<svg xmlns="http://www.w3.org/2000/svg" width="32.211" height="31.651" viewBox="0 0 32.211 31.651">
  <g id="Group_376" data-name="Group 376" transform="translate(-251 -324)">
    <g id="Group_358" data-name="Group 358" transform="translate(251 324)">
      <g id="Path_116" data-name="Path 116" transform="translate(0.082)" fill="#fff">
        <path d="M 26.87296104431152 30.65060043334961 L 5.191650867462158 30.65060043334961 C 2.873830795288086 30.65060043334961 0.9881407618522644 28.79675102233887 0.9881407618522644 26.51807022094727 L 0.9881407618522644 10.06791114807129 L 0.9881407618522644 9.99596118927002 L 0.977840781211853 9.924751281738281 C 0.8984007835388184 9.375600814819336 0.8983507752418518 8.821210861206055 0.9776808023452759 8.27699089050293 C 1.343990802764893 5.764081001281738 3.297090768814087 3.924121141433716 4.4287109375 3.051001071929932 C 6.164167881011963 1.711979866027832 8.04332447052002 1.007847785949707 9.013687133789062 1.000067353248596 C 10.70184803009033 1.06130588054657 23.9350528717041 1.540765047073364 25.9488468170166 1.595673203468323 C 26.28371047973633 1.768607497215271 26.59616088867188 1.921170234680176 26.90005111694336 2.069541215896606 C 28.98153495788574 3.085853815078735 30.03157997131348 3.598403215408325 31.09406852722168 7.528915405273438 C 31.15061187744141 7.999000072479248 31.12563514709473 9.039285659790039 31.10350036621094 9.961141586303711 C 31.0902099609375 10.51482105255127 31.07647132873535 11.08735084533691 31.07647132873535 11.60416126251221 L 31.07647132873535 26.51807022094727 C 31.07647132873535 28.79675102233887 29.19078063964844 30.65060043334961 26.87296104431152 30.65060043334961 Z M 26.05305290222168 1.52171516418457 L 25.96703147888184 1.511628150939941 L 25.20419120788574 0.6406511664390564 L 25.95326995849609 -0.3679588437080383 L 26.66963386535645 -0.2839552164077759 L 26.05305290222168 1.52171516418457 Z" stroke="none"/>
        <path d="M 9.00225830078125 2.00031852722168 C 8.319093704223633 2.015691757202148 6.66448974609375 2.589010238647461 5.039581298828125 3.842741012573242 C 4.048097610473633 4.607738494873047 2.353158950805664 6.190868377685547 1.988130569458008 8.290363311767578 L 1.988130569458008 26.51807022094727 C 1.988130569458008 28.24535179138184 3.425220489501953 29.65060043334961 5.191650390625 29.65060043334961 L 26.87296104431152 29.65060043334961 C 28.63938140869141 29.65060043334961 30.07647132873535 28.24535179138184 30.07647132873535 26.51807022094727 L 30.07647132873535 11.60416030883789 C 30.07647132873535 11.07535171508789 30.09036064147949 10.4967212677002 30.10379028320312 9.937141418457031 C 30.12214660644531 9.172563552856445 30.14678001403809 8.146356582641602 30.10840225219727 7.715202331542969 C 29.65191459655762 6.047651290893555 29.1705322265625 4.968791961669922 28.59745025634766 4.326641082763672 C 28.12068176269531 3.792400360107422 27.53709030151367 3.49342155456543 26.46129035949707 2.968141555786133 C 26.22442626953125 2.852495193481445 25.96660995483398 2.726615905761719 25.69402313232422 2.588485717773438 C 23.11659622192383 2.511354446411133 11.60655403137207 2.094783782958984 9.00225830078125 2.00031852722168 M 9.02992057800293 1.9073486328125e-06 C 9.02992057800293 1.9073486328125e-06 25.59039497375488 0.6007900238037109 26.18695068359375 0.6007900238037109 C 26.19652557373047 0.6007900238037109 26.201904296875 0.6006355285644531 26.2031192779541 0.6003227233886719 C 29.10514450073242 2.133295059204102 30.6993293762207 2.191738128662109 32.07646942138672 7.331300735473633 C 32.19409942626953 8.127090454101562 32.07646942138672 10.11279106140137 32.07646942138672 11.60416030883789 L 32.07646942138672 26.51807022094727 C 32.07646942138672 29.35269165039062 29.74678039550781 31.65060043334961 26.87296104431152 31.65060043334961 L 5.191650390625 31.65060043334961 C 2.317831039428711 31.65060043334961 -0.01186943054199219 29.35269165039062 -0.01186943054199219 26.51807022094727 L -0.01186943054199219 8.132762908935547 C 0.6905994415283203 3.313831329345703 6.484281539916992 1.9073486328125e-06 9.02992057800293 1.9073486328125e-06 Z M 26.2021312713623 0.5998020172119141 C 26.20332527160645 0.6000080108642578 26.20366668701172 0.6001815795898438 26.2031192779541 0.6003227233886719 C 26.2027645111084 0.6001358032226562 26.20248413085938 0.5999889373779297 26.2021312713623 0.5998020172119141 Z M -0.01186943054199219 7.331300735473633 L -0.01186943054199219 8.132762908935547 L -0.01186943054199219 7.331300735473633 Z M -0.01186943054199219 8.132762908935547 L -0.01186943054199219 10.06791114807129 C -0.1084098815917969 9.400514602661133 -0.1024303436279297 8.75401496887207 -0.01186943054199219 8.132762908935547 Z" stroke="none" fill="#313131"/>
      </g>
      <g id="Rectangle_825" data-name="Rectangle 825" transform="translate(4.324 0)" fill="#fff" stroke="#313131" stroke-width="2">
        <rect width="25" height="25" rx="5" stroke="none"/>
        <rect x="1" y="1" width="23" height="23" rx="4" fill="none"/>
      </g>
    </g>
    <g id="Group_338" data-name="Group 338" transform="translate(260.592 332.759)">
      <rect id="Rectangle_827" data-name="Rectangle 827" width="13.687" height="2.139" rx="1.069" transform="translate(0.453 4.448)" fill="#313131"/>
      <rect id="Rectangle_828" data-name="Rectangle 828" width="7.699" height="2.139" rx="1.069" transform="translate(6.956 1.512) rotate(135)" fill="#313131"/>
    </g>
  </g>
</svg>

<svg xmlns="http://www.w3.org/2000/svg" width="32.211" height="31.651" viewBox="0 0 32.211 31.651"><g data-name="Group 376"><g data-name="Group 358" fill="#fff"><g data-name="Path 116"><path d="M26.95496104 30.65060043H5.27365087c-2.31782007 0-4.2035101-1.8538494-4.2035101-4.1325302V9.99596118l-.01029999-.0712099c-.07944-.54915048-.07949-1.10354043-.00015998-1.6477604.36631-2.51290989 2.31940997-4.35286975 3.45103014-5.22598982 1.73545694-1.3390212 3.61461353-2.04315328 4.5849762-2.05093372 1.68816089.06123853 14.92136573.5406977 16.93515968.59560585.33486366.1729343.64731407.32549703.9512043.47386802 2.08148384 1.0163126 3.13152885 1.528862 4.1940174 5.45937419.05654336.47008466.03156663 1.51037025.00943185 2.43222618-.0132904.55367946-.02702904 1.12620926-.02702904 1.64301967v14.91390896c0 2.2786808-1.88569069 4.13253021-4.20351029 4.13253021zM26.1350529 1.52171516l-.08602142-.010087-.76284027-.870977.74907875-1.00861.7163639.08400362-.61658096 1.80567038z"/><path d="M9.0842583 2.00031853c-.6831646.01537323-2.33776855.5886917-3.962677 1.84242248-.99148369.76499748-2.68642235 2.34812737-3.05145073 4.4476223v18.22770691c0 1.72728157 1.43708992 3.13253021 3.20351982 3.13253021h21.68131065c1.76642037 0 3.20351029-1.40524864 3.20351029-3.1325302V11.6041603c0-.5288086.01388931-1.10743904.02731895-1.6670189.01835633-.76457786.04298973-1.79078483.00461197-2.22193908-.45648765-1.66755104-.93787002-2.74641037-1.510952-3.38856125-.47676849-.53424072-1.06035995-.83321953-2.1361599-1.35849952-.23686408-.11564637-.4946804-.24152565-.76726722-.37965584-2.5774269-.07713127-14.0874691-.49370194-16.69176483-.5881672M9.11192058.00000192s16.5604744.60078811 17.1570301.60078811c.0095749 0 .01495362-.0001545.0161686-.0004673 2.90202522 1.53297234 4.4962101 1.5914154 5.87335014 6.73097802.11763.79578971 0 2.78149032 0 4.27285957v14.91390991c0 2.83462143-2.32968902 5.13253021-5.20350838 5.13253021H5.2736504c-2.87381935 0-5.20351982-2.29790878-5.20351982-5.1325302V8.1327629c.70246887-4.81893158 6.49615097-8.132761 9.04179-8.132761zm17.1722107.5998001c.001194.000206.0015354.00037957.000988.00052071-.00035477-.00018692-.00063515-.00033378-.000988-.0005207zM.07013056 7.33130075v.80146217-.80146217zm0 .80146217v1.93514824c-.09654045-.66739655-.09056091-1.31389618 0-1.93514824z" fill="#313131"/></g><g data-name="Rectangle 825" transform="translate(4.324)" stroke="#313131" stroke-width="2"><rect width="25" height="25" rx="5" stroke="none"/><rect x="1" y="1" width="23" height="23" rx="4" fill="none"/></g></g><g data-name="Group 338" transform="translate(9.592 8.759)" fill="#313131"><rect data-name="Rectangle 827" width="13.687" height="2.139" rx="1.069" transform="translate(.453 4.448)"/><rect data-name="Rectangle 828" width="7.699" height="2.139" rx="1.069" transform="rotate(135 3.16485455 2.19663477)"/></g></g></svg>
